X:3463
T:Cossack Waltz,The. CJF.219
M:3/8
L:1/16
Q:60
S: C.J.Fox MS, 1829/33, Beverley,E.Yorks.
R:Waltz
O:England
A:East Yorkshire
B:Kidson Coll.Mitchell Lib.M1805
N:Nice Balalaika tune..."C J F" is written on the stave at the end of the
N:tune. - PJH.
Z:P J Headford 2000
K:Bb
"p"d2|(d2g2).g2|(b2g2).g2|(^f2a2).d2|d4d'2|"f"(c'b).a.g(^fg)|\
(.d2.e2.b2)|(.d2.=e2.^f2)|g4:||:!"cres:"=f2|f2.d2b2|(b2d'2) e2|
(e2c2) d'2|c'2e'2 e2|(defgab)|(agfedc)|(BABdc.A)|\
B4:||:!d2|(g^f).g.G(^FG)|(g^f).g.G(FG)|
(a^g).a.A(^GA)|(a^g).a.A(GA)|(ba).b.B(AB)|!(c'=b).c'.c(=Bc)|\
(d'^c')(d'c')(d'c')|(d'=c'bag^f)|(g^f).g.G(FG)|
(g^f).g.G(FG)|!(a^g).a.A(GA)|(a^g).a.A(GA)|(ba).b.B(AB)|\
(c'=b).c'.c(Bc)|(d'^c').d'.d(=e^f)|g4||


